X:1
T:Title
%%score { ( 1 4 ) | ( 2 3 ) }
L:1/8
Q:1/4=100
M:6/8
K:G
V:1 treble nm="Grand Piano"
V:4 treble 
V:2 bass 
V:3 bass 
V:1
 [DB]2 [B,D] [B,E]2 [B,G] | G2 F F3 | c2 E F2 E | [B,E]2 [B,D] [DB]3 | [DB]2 [B,D] [B,E]2 G | %5
w: A.~A.~Dubois * * *|||||
 G2 [DF] [DF][EG][=F^G] | [FA]2 [Fd] [Ge]2 [G^c] | [Fd]6 | [Ac]2 [FA] [FA]B[DAc] | %9
w: ||||
 [DAc]2 [DGB] [DGB]3 | [^DB]2 [B,DF] [B,EG]2 [EA] |[M:7/8] [^DB]3 [CA]3 =D |[M:3/4] G2 G A2 [GB] | %13
w: ||||
 [Gc]2 [Gd] [Ge]3 | .[Dd]2 [G,DG] [G,CE]2 [EAc] |[M:15/16] [DGB]->[DGB][CFA][B,G]3/2- [B,G]3 | %16
w: |||
[M:3/4] d2 z .G3 | G2 z F3 | d2 z .A3 | A2 z d3 | G2 z .B3 |[M:15/16] .c3 z3/2 z3 | %22
w: ||||||
[M:3/4] .d2 z2 z2[Q:1/4=97][Q:1/4=94][Q:1/4=91][Q:1/4=88][Q:1/4=84][Q:1/4=81][Q:1/4=78] | %23
w: |
[M:15/16] [DGB]->[DGB][CFA][B,G]3/2- [B,G]3 |] %24
w: |
V:2
 [G,,G,]2 [G,,G,] [G,,G,]2 [G,,G,] | [D,A,C]2 [D,A,C] [D,A,C]3 | %2
 [D,F,D]2 [D,F,C] [D,A,C]2 [D,F,C] | [G,,G,]2 [G,,G,] [G,,G,]3 | %4
 [G,,G,]2 [G,,G,] [G,,G,]2 [G,B,D] | [A,D]2 [A,,A,] [A,,A,][A,,A,][A,,A,] | %6
 [A,,A,]2 [A,,A,] [^C,A,]2 [A,,A,] | [D,A,]6 | [D,D]2 [D,D] z GD, | G,2 G, G,3 | %10
 B,2 B,, E,2 [C,F,] |[M:7/8] [B,,F,]3 [D,F,]3 [F,C] |[M:3/4] [G,B,D]2 [G,B,D] [F,CD]2 [=F,D] | %13
 [E,C]2 [D,B,] [C,C]3 | z[K:treble] B[K:bass] B,, C,2 C, |[M:15/16] D,->D,D,G,3/2- G,3 | %16
[M:3/4] z B, .[B,D]2 z D | z C .[CD]2 CC | z C .[CD]2 C[CD] | z B, .[B,D]2 B,B, | %20
 z B, .[B,D]2 B,[B,D] |[M:15/16] z G,/-G,/[G,C][^D,_B,]3/2- [D,B,]3 |[M:3/4] B,G, B,, C,2 C, | %23
[M:15/16] D,->D,D,G,3/2- G,3 |] %24
V:3
 x6 | x6 | x6 | x6 | x6 | x6 | x6 | x6 | z3 .[D,D]3 | x6 | x6 |[M:7/8] x7 |[M:3/4] x6 | x6 | %14
 [B,,G,]2[K:treble][K:bass] z2 z2 |[M:15/16] x15/2 |[M:3/4] G,3 D,3 | A,3 D,3 | F,3 D,3 | G,3 D,3 | %20
 G,3 =F,3 |[M:15/16] E,3 z3/2 z3 |[M:3/4] D,2 z2 z2 |[M:15/16] x15/2 |] %24
V:4
 x6 | x6 | x6 | x6 | x6 | x6 | x6 | x6 | x6 | x6 | x6 |[M:7/8] x7 |[M:3/4] x6 | x6 | x6 | %15
[M:15/16] x15/2 |[M:3/4] z D .G2 DA | z D .F2 DD | z D .A2 DB | z D .G2 DD | z D .G2 DG | %21
[M:15/16] z C/-C/G[G^c]3/2- [Gc]3 |[M:3/4] G-[GB] [G,DG] [G,CE]2 [EAc] |[M:15/16] x15/2 |] %24

